X:779
%%etbk:tnset id:6,pos:3,rep:3x,ant:
%%etbk:wsite https://thesession.org/tunes/1131
%%etbk:video src:ytube,cde:6WK2867CIi8,desc:1:19
%%etbk:pldat 2016-09-15T18:43,2016-09-12T19:04,2016-09-10T16:11,2016-09-08T19:10,2016-09-07T15:17,2016-09-06T16:05,2016-08-05T17:11,2016-08-03T16:25,2016-08-02T17:45,2016-07-31T16:28,2016-07-28T18:56,2016-07-25T18:09,2016-07-24T17:37,2016-07-23T16:40,2016-07-22T17:16
T: Richard Dwyer's
Z: Piano Box Version by Martin Fleischmann
H: Created 2016-07-22 /  Last Modified 2016-08-03
R: reel
M: 4/4
L: 1/8
K: Cdor
G, |: !2!C2G,C !3!EFG!3!E | !4!F!1!D!2!B,!1!G, !3!C!1!A,!2!B,!1!A, | !1!G,!2!C!3!EC !1!D!2!F!4!B!2!F | !3!G!5!ccB c3B |
!2!G2GF !2!EECE | !1!D!4!BFD !3!EGF!1!D | !2!CG,EG, FG,EF |1 !5!GFE!2!D !1!G,!2!CCG, :|2 GFED G,CC2 ||
|: !4!c2!2!Gc !5!ecGc | !3!B2FB dc!3!BA | !4!BAG!1!F !3!EFGF | !3!EC!4!DB, G,!3!C!1!C2 |
!5!c2Gc EcGc | !4!BAB!2!F !1!D!2!B,B,!4!D | !1!CDE!4!F !2!GccA |1 !4!BGFA GCC2 :|2 BGFA GFED :|


